dist/svg/investigation.svg

<!-- Generated by Trend Micro Style Portal -->
<svg version="1.1" xmlns="http://www.w3.org/2000/svg" width="16" height="16" viewBox="0 0 16 16">
  <title>investigation</title>
  <path fill="rgb(34,34,34)" d="M11.7 10.3l4.3 4.3-1.4 1.4-4.3-4.3c-1 0.8-2.4 1.3-3.8 1.3-3.6 0-6.5-2.9-6.5-6.5s2.9-6.5 6.5-6.5c0.5 0 1 0.1 1.5 0.2v1.6c-0.5-0.2-1-0.3-1.5-0.3-2.8 0-5 2.2-5 5s2.2 5 5 5c1.8 0 3.5-1 4.3-2.5h1.7c-0.2 0.5-0.5 0.9-0.8 1.3zM13 3v-3h-2v3h-3v2h3v3h2v-3h3v-2h-3z"></path>
</svg>

<svg width="16" height="16" viewBox="0 0 16 16" fill="rgb(34, 34, 34)" xmlns="http://www.w3.org/2000/svg"><title>investigation</title><path d="M11.7 10.3L16 14.6L14.6 16L10.3 11.7C9.3 12.5 7.9 13 6.5 13C2.9 13 0 10.1 0 6.5C0 2.9 2.9 0 6.5 0C7 0 7.5 0.1 8 0.2V1.8C7.5 1.6 7 1.5 6.5 1.5C3.7 1.5 1.5 3.7 1.5 6.5C1.5 9.3 3.7 11.5 6.5 11.5C8.3 11.5 10 10.5 10.8 9H12.5C12.3 9.5 12 9.9 11.7 10.3ZM13 3V0H11V3H8V5H11V8H13V5H16V3H13Z" fill="rgb(34, 34, 34)" fill-opacity="1.00"/></svg>
